X:1
T:Huron, LMD
T:Huron, LMD
T:The Sabbath Hymn and Tune Book, 1859
T:Public Domain Courtesy of the Cyber Hymnal™
C:The Sabbath Hymn and Tune Book, 1859
Z:Public Domain
Z:Courtesy of the Cyber Hymnal™
%%score ( 1 2 ) ( 3 4 )
L:1/8
Q:1/4=113
M:none
K:G
V:1 treble 
V:2 treble 
V:3 bass 
V:4 bass 
V:1
|: [B,D]4 | [DG]2 [DA]2 [DB]2 [EG]2 [Dd]2 [Dd]2 | [DB]4 [DB]4 | %3
 [DA]2 [Dd]2 [DB]2 [Ge]2 [Fd]2 [E^c]2 | [Fd]4 :| [FA]4 | [EA]2 [^CA]2 [DF]2 D2 [DG]2 [DA]2 | %7
 [DB]4 [DB]4 | [DA]2 [B,B]2 [B,G]2 [DF]2 [DE]2 [^CE]2 | D4 [B,D]4 | %10
 [DG]2 [DA]2 [DB]2 [EG]2 [Dd]2 [Dd]2 | [DB]4 [Dd]4 | [B,G]2 [EA]2 [DF]2 (G>[A^c]) [DB]2 [=CA]2 | %13
 [B,G]4 |] %14
V:2
|: x4 | x12 | x8 | x12 | x4 :| x4 | x6 D2 x4 | x8 | x12 | D4 x4 | x12 | x8 | x6 ^C2 x4 | x4 |] %14
V:3
|: [G,,G,]4 | [B,,G,]2 [D,F,]2 G,2 [E,G,]2 [F,A,]2 [D,F,]2 | G,4 G,4 | %3
 [F,A,]2 [D,F,]2 G,2 [E,B,]2 [F,A,]2 A,2 | [D,A,]4 :| [D,A,]4 | %6
 [^C,A,]2 [A,,A,]2 [D,A,]2 [=C,A,]2 [B,,G,]2 [D,F,]2 | G,4 [G,,G,]4 | %8
 [D,F,]2 [^D,F,]2 [E,G,]2 [B,,B,]2 [G,,B,]2 [A,,A,]2 | [D,F,]4 [G,,G,]4 | %10
 [B,,G,]2 [D,F,]2 G,2 [E,G,]2 [F,A,]2 [D,F,]2 | G,4 [B,,G,]4 | %12
 [E,G,]2 [C,C]2 [D,A,]2 [E,G,]2 [D,G,]2 [D,F,]2 | [G,,G,]4 |] %14
V:4
|: x4 | x4 G,2 x6 | G,4 G,4 | x4 G,2 x2 A,2 x2 | x4 :| x4 | x12 | G,4 x4 | x12 | x8 | x4 G,2 x6 | %11
 G,4 x4 | x12 | x4 |] %14

